img/logo/telegram.svg

<svg width="32" height="31" viewBox="0 0 32 31" fill="none" xmlns="http://www.w3.org/2000/svg">
<rect x="6" y="6" width="19" height="18" fill="white"/>
<path fill-rule="evenodd" clip-rule="evenodd" d="M13.6059 0.0805015C9.11934 0.690452 5.00877 3.24807 2.61668 6.9179C-0.861535 12.254 -0.872887 18.7345 2.58677 24.0273C7.93043 32.2026 19.463 33.3983 26.4558 26.5018C32.5233 20.5181 32.5532 10.6759 26.5226 4.55326C24.4009 2.39926 21.3894 0.803207 18.3741 0.234677C17.1469 0.00333735 14.7444 -0.0742871 13.6059 0.0805015ZM23.1542 9.68768C23.3087 10.027 23.2484 10.521 22.7743 12.7942C21.1752 20.464 20.6265 22.8921 20.4211 23.2061C20.0377 23.7925 19.5667 23.6274 17.6462 22.2328C16.6475 21.5076 15.732 20.82 15.6117 20.7047C15.4252 20.5259 15.2282 20.6517 14.2689 21.563C12.9984 22.77 12.4682 22.9503 12.596 22.1323C12.6388 21.8581 12.7174 20.9596 12.7708 20.1357L12.8679 18.6378L14.5061 17.1442C15.4071 16.3229 17.0565 14.8273 18.1715 13.8208C19.2865 12.8143 20.1666 11.9586 20.1271 11.9193C20.0375 11.8296 17.9681 13.1001 11.3932 17.2809L10.7912 17.6637L9.39885 17.2469C6.62892 16.4174 6.32241 16.2882 6.27132 15.9289C6.20566 15.4682 6.52537 15.2886 9.31049 14.2215C12.0077 13.188 18.3247 10.7443 20.5093 9.88925C22.3325 9.1756 22.9011 9.13234 23.1542 9.68768Z" fill="#039BE5"/>
</svg>

<svg xmlns="http://www.w3.org/2000/svg" width="32" height="31" fill="none" viewBox="0 0 32 31"><path fill="#fff" d="M6 6h19v18H6z"/><path fill="#039be5" fill-rule="evenodd" d="M13.606.08C9.119.69 5.009 3.249 2.616 6.919c-3.478 5.336-3.489 11.817-.03 17.11 5.344 8.175 16.877 9.37 23.87 2.474 6.067-5.984 6.097-15.826.067-21.949C24.4 2.4 21.389.803 18.374.235c-1.227-.232-3.63-.31-4.768-.154m9.548 9.608c.155.339.094.833-.38 3.106-1.599 7.67-2.148 10.098-2.353 10.412-.383.587-.854.421-2.775-.973-.998-.725-1.914-1.413-2.034-1.528-.187-.18-.384-.053-1.343.858-1.27 1.207-1.8 1.387-1.673.57.043-.275.121-1.173.175-1.997l.097-1.498 1.638-1.494c.901-.821 2.55-2.317 3.666-3.323 1.114-1.007 1.995-1.862 1.955-1.902-.09-.09-2.159 1.181-8.734 5.362l-.602.383-1.392-.417c-2.77-.83-3.077-.959-3.128-1.318-.065-.46.254-.64 3.04-1.707 2.697-1.034 9.014-3.478 11.198-4.333 1.823-.713 2.392-.757 2.645-.201" clip-rule="evenodd"/></svg>
